assets/images/about/2001.svg

<svg width="27" height="99" viewBox="0 0 27 99" fill="none" xmlns="http://www.w3.org/2000/svg">
<path d="M19.995 75.325L19.995 74.325L18.995 74.325L18.995 75.325L19.995 75.325ZM25 75.325L26 75.325L26 74.325L25 74.325L25 75.325ZM25 97.725L25 98.725L26 98.725L26 97.725L25 97.725ZM20.24 97.725L19.3666 98.212L19.6526 98.725L20.24 98.725L20.24 97.725ZM13.8 86.175L14.6734 85.688L14.6725 85.6864L13.8 86.175ZM12.19 83.55L13.0016 82.9657L12.9974 82.96L12.19 83.55ZM11 82.325L10.47 83.173L10.4777 83.1778L10.4855 83.1825L11 82.325ZM7.5 83.2L8.36193 83.707L8.37065 83.6922L8.37885 83.6771L7.5 83.2ZM7.675 90.445L8.51398 89.9008L8.51042 89.8954L7.675 90.445ZM10.86 91.74L11.86 91.74L11.86 90.74L10.86 90.74L10.86 91.74ZM10.86 97.725L10.86 98.725L11.86 98.725L11.86 97.725L10.86 97.725ZM3.755 94.96L4.54653 94.3488L4.54166 94.3426L3.755 94.96ZM3.58 78.65L4.40436 79.2161L4.40896 79.2093L3.58 78.65ZM13.73 77.39L13.0803 78.1502L13.0815 78.1512L13.73 77.39ZM17.825 82.955L18.6999 82.4707L18.6984 82.468L17.825 82.955ZM19.995 86.875L19.1201 87.3593L20.995 90.7462L20.995 86.875L19.995 86.875ZM19.995 76.325L25 76.325L25 74.325L19.995 74.325L19.995 76.325ZM24 75.325L24 97.725L26 97.725L26 75.325L24 75.325ZM25 96.725L20.24 96.725L20.24 98.725L25 98.725L25 96.725ZM21.1134 97.238L14.6734 85.688L12.9266 86.662L19.3666 98.212L21.1134 97.238ZM14.6725 85.6864C14.0135 84.5096 13.455 83.5955 13.0015 82.9657L11.3785 84.1343C11.765 84.6712 12.2798 85.5071 12.9275 86.6636L14.6725 85.6864ZM12.9974 82.96C12.5303 82.3209 12.0384 81.7819 11.5145 81.4675L10.4855 83.1825C10.6616 83.2881 10.963 83.5658 11.3826 84.14L12.9974 82.96ZM11.53 81.477C10.9881 81.1383 10.3823 80.975 9.74 80.975L9.74 82.975C10.031 82.975 10.2653 83.045 10.47 83.173L11.53 81.477ZM9.74 80.975L9.425 80.975L9.425 82.975L9.74 82.975L9.74 80.975ZM9.425 80.975C8.83538 80.975 8.27467 81.1208 7.77687 81.4376C7.28425 81.7511 6.90601 82.1982 6.62114 82.7229L8.37885 83.6771C8.53732 83.3852 8.70158 83.2198 8.85063 83.1249C8.9945 83.0334 9.17462 82.975 9.425 82.975L9.425 80.975ZM6.63806 82.693C6.04011 83.7095 5.8 85.0731 5.8 86.665L7.8 86.665C7.8 85.2235 8.02655 84.2772 8.36193 83.707L6.63806 82.693ZM5.8 86.665C5.8 88.396 6.1055 89.8788 6.83958 90.9946L8.51042 89.8954C8.07783 89.2379 7.8 88.2006 7.8 86.665L5.8 86.665ZM6.83604 90.9892C7.59446 92.1584 8.75116 92.74 10.16 92.74L10.16 90.74C9.37551 90.74 8.87554 90.4582 8.51396 89.9008L6.83604 90.9892ZM10.16 92.74L10.86 92.74L10.86 90.74L10.16 90.74L10.16 92.74ZM9.86 91.74L9.86 97.725L11.86 97.725L11.86 91.74L9.86 91.74ZM10.86 96.725L10.125 96.725L10.125 98.725L10.86 98.725L10.86 96.725ZM10.125 96.725C7.53818 96.725 5.73978 95.8942 4.5465 94.3488L2.96349 95.5712C4.61689 97.7124 7.06515 98.725 10.125 98.725L10.125 96.725ZM4.54166 94.3426C3.2905 92.7484 2.585 90.2777 2.585 86.77L0.584999 86.77C0.584999 90.4956 1.32617 93.4849 2.96833 95.5774L4.54166 94.3426ZM2.585 86.77C2.585 83.4037 3.23154 80.9239 4.40433 79.2161L2.75567 78.0839C1.26846 80.2495 0.584998 83.183 0.584999 86.77L2.585 86.77ZM4.40896 79.2093C5.52777 77.5511 7.04722 76.745 9.075 76.745L9.075 74.745C6.38944 74.745 4.24556 75.8756 2.75103 78.0907L4.40896 79.2093ZM9.075 76.745L9.425 76.745L9.425 74.745L9.075 74.745L9.075 76.745ZM9.425 76.745C10.7575 76.745 11.9656 77.1976 13.0803 78.1502L14.3797 76.6298C12.9278 75.3891 11.2659 74.745 9.425 74.745L9.425 76.745ZM13.0815 78.1512C14.2045 79.1079 15.4999 80.8382 16.9516 83.442L18.6984 82.468C17.2101 79.7985 15.7755 77.8188 14.3785 76.6288L13.0815 78.1512ZM16.9501 83.4393L19.1201 87.3593L20.8699 86.3907L18.6999 82.4707L16.9501 83.4393ZM20.995 86.875L20.995 75.325L18.995 75.325L18.995 86.875L20.995 86.875ZM24.09 65.9841L24.9951 66.4094L24.997 66.4052L24.09 65.9841ZM20.275 70.5341L20.8187 71.3734L20.8256 71.3689L20.8324 71.3643L20.275 70.5341ZM6.8 70.5341L6.24798 71.368L6.25626 71.3734L6.8 70.5341ZM2.95 65.9841L2.04298 66.4052L2.04493 66.4094L2.95 65.9841ZM2.95 52.5091L2.04493 52.0838L2.95 52.5091ZM6.8 48.0291L7.33533 48.8737L7.34229 48.8693L7.34917 48.8648L6.8 48.0291ZM20.31 48.0291L19.7663 48.8684L19.7692 48.8703L20.31 48.0291ZM24.125 52.5091L25.0343 52.0928L25.0301 52.0838L24.125 52.5091ZM8.655 54.2941L9.45304 54.8967L8.655 54.2941ZM8.69 64.2691L9.48804 63.6665L9.48616 63.664L8.69 64.2691ZM18.42 64.2691L19.2259 64.8612L18.42 64.2691ZM24.455 59.2291C24.455 61.6525 24.0218 63.7562 23.183 65.563L24.997 66.4052C25.9782 64.292 26.455 61.8924 26.455 59.2291L24.455 59.2291ZM23.1849 65.5588C22.345 67.3464 21.1874 68.717 19.7176 69.7039L20.8324 71.3643C22.6293 70.1579 24.015 68.4952 24.9951 66.4094L23.1849 65.5588ZM19.7313 69.6948C18.2507 70.6541 16.5413 71.1441 14.57 71.1441L14.57 73.1441C16.892 73.1441 18.986 72.5608 20.8187 71.3734L19.7313 69.6948ZM14.57 71.1441L12.505 71.1441L12.505 73.1441L14.57 73.1441L14.57 71.1441ZM12.505 71.1441C10.5337 71.1441 8.82431 70.6541 7.34374 69.6948L6.25626 71.3734C8.08902 72.5608 10.183 73.1441 12.505 73.1441L12.505 71.1441ZM7.35198 69.7002C5.86004 68.7126 4.6933 67.3428 3.85506 65.5588L2.04493 66.4094C3.02669 68.4988 4.42662 70.1622 6.24801 71.368L7.35198 69.7002ZM3.85701 65.563C3.01816 63.7562 2.585 61.6525 2.585 59.2291L0.584997 59.2291C0.584997 61.8924 1.06183 64.292 2.04299 66.4052L3.85701 65.563ZM2.585 59.2291C2.585 56.8054 3.01827 54.7152 3.85506 52.9344L2.04493 52.0838C1.06172 54.1763 0.584997 56.5662 0.584997 59.2291L2.585 59.2291ZM3.85506 52.9344C4.69184 51.1535 5.85381 49.8127 7.33533 48.8737L6.26466 47.1845C4.43285 48.3455 3.02815 49.9913 2.04493 52.0838L3.85506 52.9344ZM7.34917 48.8648C8.8017 47.9103 10.5078 47.4191 12.505 47.4191L12.505 45.4191C10.1622 45.4191 8.06496 46.0012 6.25082 47.1934L7.34917 48.8648ZM12.505 47.4191L14.57 47.4191L14.57 45.4191L12.505 45.4191L12.505 47.4191ZM14.57 47.4191C16.5669 47.4191 18.2875 47.9103 19.7663 48.8684L20.8537 47.1898C19.0192 46.0013 16.9131 45.4191 14.57 45.4191L14.57 47.4191ZM19.7692 48.8703C21.2286 49.8084 22.3814 51.1499 23.2199 52.9344L25.0301 52.0838C24.0486 49.995 22.6581 48.3498 20.8508 47.1879L19.7692 48.8703ZM23.2158 52.9254C24.0322 54.7085 24.455 56.802 24.455 59.2291L26.455 59.2291C26.455 56.5696 25.9912 54.183 25.0342 52.0928L23.2158 52.9254ZM20.68 59.2291C20.68 56.9157 20.2498 54.9982 19.2277 53.6403C18.1654 52.2288 16.586 51.5791 14.675 51.5791L14.675 53.5791C16.1007 53.5791 17.0237 54.0377 17.6298 54.8429C18.2761 55.7017 18.68 57.1091 18.68 59.2291L20.68 59.2291ZM14.675 51.5791L12.435 51.5791L12.435 53.5791L14.675 53.5791L14.675 51.5791ZM12.435 51.5791C10.5204 51.5791 8.94048 52.2566 7.85696 53.6915L9.45304 54.8967C10.0962 54.045 11.0363 53.5791 12.435 53.5791L12.435 51.5791ZM7.85696 53.6915C6.81051 55.0773 6.36 56.9827 6.36 59.2641L8.36 59.2641C8.36 57.2055 8.77282 55.7975 9.45304 54.8967L7.85696 53.6915ZM6.36 59.2641C6.36 61.5521 6.82483 63.4676 7.89384 64.8742L9.48616 63.664C8.78183 62.7373 8.36 61.3161 8.36 59.2641L6.36 59.2641ZM7.89196 64.8717C8.97255 66.3028 10.5382 66.9841 12.435 66.9841L12.435 64.9841C11.0652 64.9841 10.1341 64.5221 9.48804 63.6665L7.89196 64.8717ZM12.435 66.9841L14.675 66.9841L14.675 64.9841L12.435 64.9841L12.435 66.9841ZM14.675 66.9841C16.5892 66.9841 18.1642 66.3063 19.2259 64.8612L17.6141 63.677C16.9958 64.5186 16.0742 64.9841 14.675 64.9841L14.675 66.9841ZM19.2259 64.8612C20.2451 63.4739 20.68 61.547 20.68 59.2291L18.68 59.2291C18.68 61.3445 18.2749 62.7776 17.6141 63.677L19.2259 64.8612ZM24.09 37.3757L24.9951 37.801L24.997 37.7968L24.09 37.3757ZM20.275 41.9257L20.8187 42.765L20.8256 42.7605L20.8324 42.7559L20.275 41.9257ZM6.8 41.9257L6.24798 42.7596L6.25626 42.765L6.8 41.9257ZM2.95 37.3757L2.04298 37.7968L2.04493 37.801L2.95 37.3757ZM2.94999 23.9007L2.04493 23.4754L2.94999 23.9007ZM6.8 19.4207L7.33533 20.2653L7.34229 20.2609L7.34917 20.2564L6.8 19.4207ZM20.31 19.4207L19.7663 20.26L19.7692 20.2619L20.31 19.4207ZM24.125 23.9007L25.0343 23.4844L25.0301 23.4754L24.125 23.9007ZM8.655 25.6857L9.45304 26.2883L8.655 25.6857ZM8.69 35.6607L9.48804 35.0581L9.48616 35.0556L8.69 35.6607ZM18.42 35.6607L19.2259 36.2528L18.42 35.6607ZM24.455 30.6207C24.455 33.0441 24.0218 35.1478 23.183 36.9546L24.997 37.7968C25.9782 35.6836 26.455 33.284 26.455 30.6207L24.455 30.6207ZM23.1849 36.9504C22.345 38.738 21.1874 40.1086 19.7176 41.0955L20.8324 42.7559C22.6293 41.5495 24.015 39.8868 24.9951 37.801L23.1849 36.9504ZM19.7313 41.0864C18.2507 42.0457 16.5413 42.5357 14.57 42.5357L14.57 44.5357C16.892 44.5357 18.986 43.9524 20.8187 42.765L19.7313 41.0864ZM14.57 42.5357L12.505 42.5357L12.505 44.5357L14.57 44.5357L14.57 42.5357ZM12.505 42.5357C10.5337 42.5357 8.82431 42.0457 7.34374 41.0864L6.25626 42.765C8.08902 43.9524 10.183 44.5357 12.505 44.5357L12.505 42.5357ZM7.35198 41.0918C5.86004 40.1042 4.6933 38.7344 3.85506 36.9504L2.04493 37.801C3.02669 39.8904 4.42662 41.5538 6.24801 42.7596L7.35198 41.0918ZM3.857 36.9546C3.01816 35.1478 2.585 33.0441 2.585 30.6207L0.584996 30.6207C0.584996 33.284 1.06183 35.6836 2.04299 37.7968L3.857 36.9546ZM2.585 30.6207C2.585 28.197 3.01827 26.1068 3.85506 24.326L2.04493 23.4754C1.06172 25.5679 0.584996 27.9578 0.584996 30.6207L2.585 30.6207ZM3.85506 24.326C4.69184 22.5451 5.8538 21.2043 7.33533 20.2653L6.26466 18.5761C4.43285 19.7371 3.02815 21.3829 2.04493 23.4754L3.85506 24.326ZM7.34917 20.2564C8.8017 19.3019 10.5078 18.8107 12.505 18.8107L12.505 16.8107C10.1622 16.8107 8.06496 17.3928 6.25082 18.585L7.34917 20.2564ZM12.505 18.8107L14.57 18.8107L14.57 16.8107L12.505 16.8107L12.505 18.8107ZM14.57 18.8107C16.5669 18.8107 18.2875 19.3019 19.7663 20.26L20.8537 18.5815C19.0192 17.3929 16.9131 16.8107 14.57 16.8107L14.57 18.8107ZM19.7692 20.2619C21.2286 21.2 22.3814 22.5415 23.2199 24.326L25.0301 23.4754C24.0486 21.3866 22.6581 19.7414 20.8508 18.5795L19.7692 20.2619ZM23.2158 24.317C24.0322 26.1001 24.455 28.1936 24.455 30.6207L26.455 30.6207C26.455 27.9612 25.9912 25.5746 25.0342 23.4844L23.2158 24.317ZM20.68 30.6207C20.68 28.3073 20.2498 26.3898 19.2277 25.0319C18.1654 23.6204 16.586 22.9707 14.675 22.9707L14.675 24.9707C16.1006 24.9707 17.0237 25.4293 17.6298 26.2345C18.2761 27.0933 18.68 28.5007 18.68 30.6207L20.68 30.6207ZM14.675 22.9707L12.435 22.9707L12.435 24.9707L14.675 24.9707L14.675 22.9707ZM12.435 22.9707C10.5204 22.9707 8.94048 23.6482 7.85696 25.0831L9.45304 26.2883C10.0962 25.4366 11.0362 24.9707 12.435 24.9707L12.435 22.9707ZM7.85696 25.0831C6.81051 26.4689 6.36 28.3743 6.36 30.6557L8.36 30.6557C8.36 28.5971 8.77282 27.1891 9.45304 26.2883L7.85696 25.0831ZM6.36 30.6557C6.36 32.9437 6.82483 34.8592 7.89383 36.2658L9.48616 35.0556C8.78183 34.1289 8.36 32.7077 8.36 30.6557L6.36 30.6557ZM7.89196 36.2633C8.97255 37.6944 10.5382 38.3757 12.435 38.3757L12.435 36.3757C11.0652 36.3757 10.1341 35.9137 9.48804 35.0581L7.89196 36.2633ZM12.435 38.3757L14.675 38.3757L14.675 36.3757L12.435 36.3757L12.435 38.3757ZM14.675 38.3757C16.5892 38.3757 18.1642 37.6979 19.2259 36.2528L17.6141 35.0686C16.9958 35.9102 16.0742 36.3757 14.675 36.3757L14.675 38.3757ZM19.2259 36.2528C20.2451 34.8655 20.68 32.9386 20.68 30.6207L18.68 30.6207C18.68 32.7361 18.2749 34.1692 17.6141 35.0686L19.2259 36.2528ZM25 1.8373L26 1.8373L26 0.837302L25 0.837302L25 1.8373ZM25 8.0323L25 9.0323L26 9.0323L26 8.0323L25 8.0323ZM9.46 8.0323L9.46 7.0323L8.01699 7.0323L8.52367 8.38343L9.46 8.0323ZM9.98499 14.6473L9.985 15.6473L10.985 15.6473L10.985 14.6473L9.98499 14.6473ZM4.20999 14.6473L3.20999 14.6473L3.20999 15.6473L4.20999 15.6473L4.20999 14.6473ZM3.71999 8.80231L4.56366 8.26543L4.55515 8.25206L4.54622 8.23897L3.71999 8.80231ZM2.03999 8.0323L1.03999 8.0323L1.04 9.0323L2.04 9.0323L2.03999 8.0323ZM2.03999 1.8373L2.03999 0.837303L1.03999 0.837303L1.03999 1.8373L2.03999 1.8373ZM24 1.8373L24 8.0323L26 8.0323L26 1.8373L24 1.8373ZM25 7.0323L9.46 7.0323L9.46 9.0323L25 9.0323L25 7.0323ZM8.52367 8.38343C8.82505 9.18713 8.98499 10.1155 8.98499 11.1823L10.985 11.1823C10.985 9.91577 10.7949 8.74415 10.3963 7.68118L8.52367 8.38343ZM8.98499 11.1823L8.98499 14.6473L10.985 14.6473L10.985 11.1823L8.98499 11.1823ZM9.98499 13.6473L4.20999 13.6473L4.20999 15.6473L9.985 15.6473L9.98499 13.6473ZM5.20999 14.6473L5.20999 11.2873L3.20999 11.2873L3.20999 14.6473L5.20999 14.6473ZM5.20999 11.2873C5.20999 10.0955 5.0484 9.02717 4.56366 8.26543L2.87633 9.33918C3.04493 9.60411 3.20999 10.1924 3.20999 11.2873L5.20999 11.2873ZM4.54622 8.23897C3.96459 7.38591 3.05107 7.0323 2.03999 7.0323L2.04 9.0323C2.56892 9.0323 2.7754 9.19203 2.89377 9.36564L4.54622 8.23897ZM3.03999 8.0323L3.03999 1.8373L1.03999 1.8373L1.03999 8.0323L3.03999 8.0323ZM2.03999 2.8373L25 2.8373L25 0.837302L2.03999 0.837303L2.03999 2.8373Z" fill="#313131"/>
</svg>

<svg width="27" height="99" fill="none" xmlns="http://www.w3.org/2000/svg"><path d="M19.995 75.325v-1h-1v1h1zm5.005 0h1v-1h-1v1zm0 22.4v1h1v-1h-1zm-4.76 0l-.873.487.286.513h.587v-1zm-6.44-11.55l.873-.487v-.002l-.873.489zm-1.61-2.625l.812-.584-.005-.006-.807.59zM11 82.325l-.53.848.008.005.008.005.514-.858zm-3.5.875l.862.507.009-.015.008-.015L7.5 83.2zm.175 7.245l.839-.544-.004-.006-.835.55zm3.185 1.295h1v-1h-1v1zm0 5.985v1h1v-1h-1zM3.755 94.96l.792-.611-.005-.006-.787.617zM3.58 78.65l.824.566.005-.007-.829-.559zm10.15-1.26l-.65.76.002.001.648-.761zm4.095 5.565l.875-.484-.002-.003-.873.487zm2.17 3.92l-.875.484 1.875 3.387v-3.871h-1zm0-10.55H25v-2h-5.005v2zm4.005-1v22.4h2v-22.4h-2zm1 21.4h-4.76v2H25v-2zm-3.887.513l-6.44-11.55-1.746.974 6.44 11.55 1.746-.974zm-6.44-11.552c-.66-1.176-1.218-2.09-1.671-2.72l-1.623 1.168c.386.537.9 1.373 1.549 2.53l1.744-.978zm-1.676-2.726c-.467-.64-.959-1.178-1.482-1.492l-1.03 1.715c.177.105.478.383.898.957l1.614-1.18zm-1.467-1.483a3.328 3.328 0 00-1.79-.502v2c.291 0 .525.07.73.198l1.06-1.696zm-1.79-.502h-.315v2h.315v-2zm-.315 0c-.59 0-1.15.146-1.648.463-.493.313-.871.76-1.156 1.285l1.758.954c.158-.292.323-.457.472-.552a1.03 1.03 0 01.574-.15v-2zm-2.787 1.718c-.598 1.017-.838 2.38-.838 3.972h2c0-1.442.227-2.388.562-2.958l-1.724-1.014zM5.8 86.665c0 1.731.306 3.214 1.04 4.33l1.67-1.1c-.432-.657-.71-1.694-.71-3.23h-2zm1.036 4.324c.758 1.17 1.915 1.751 3.324 1.751v-2c-.784 0-1.284-.282-1.646-.84l-1.678 1.09zm3.324 1.751h.7v-2h-.7v2zm-.3-1v5.985h2V91.74h-2zm1 4.985h-.735v2h.735v-2zm-.735 0c-2.587 0-4.385-.83-5.579-2.376L2.963 95.57c1.654 2.141 4.102 3.154 7.162 3.154v-2zm-5.583-2.382c-1.251-1.595-1.957-4.065-1.957-7.573h-2c0 3.726.741 6.715 2.383 8.807l1.574-1.234zM2.585 86.77c0-3.366.647-5.846 1.82-7.554l-1.65-1.132C1.269 80.249.586 83.183.586 86.77h2zm1.824-7.56c1.119-1.659 2.638-2.465 4.666-2.465v-2c-2.686 0-4.83 1.13-6.324 3.346l1.658 1.118zm4.666-2.465h.35v-2h-.35v2zm.35 0c1.332 0 2.54.453 3.655 1.405l1.3-1.52c-1.452-1.24-3.114-1.885-4.955-1.885v2zm3.656 1.406c1.123.957 2.419 2.687 3.87 5.291l1.747-.974c-1.488-2.67-2.923-4.65-4.32-5.84l-1.296 1.523zm3.87 5.288l2.17 3.92 1.749-.968-2.17-3.92-1.75.968zm4.044 3.436v-11.55h-2v11.55h2zm3.095-20.89l.905.424.002-.004-.907-.42zm-3.815 4.55l.544.838.007-.004.006-.005-.557-.83zm-13.475 0l-.552.833.008.005.544-.839zm-3.85-4.55l-.907.42.002.004.905-.425zm0-13.476l-.905-.425.905.425zm3.85-4.48l.535.845.007-.005.007-.004-.549-.836zm13.51 0l-.544.84.003.001.541-.84zm3.815 4.48l.91-.416-.005-.01-.905.426zm-15.47 1.785l.798.603-.798-.603zm.035 9.975l.798-.603-.002-.002-.796.605zm9.73 0l.806.592-.806-.592zm6.035-5.04c0 2.424-.433 4.527-1.272 6.334l1.814.842c.981-2.113 1.458-4.513 1.458-7.176h-2zm-1.27 6.33c-.84 1.787-1.998 3.158-3.467 4.145l1.114 1.66c1.797-1.206 3.183-2.869 4.163-4.955l-1.81-.85zm-3.454 4.136c-1.48.96-3.19 1.45-5.161 1.45v2c2.322 0 4.416-.584 6.249-1.772l-1.088-1.678zm-5.161 1.45h-2.065v2h2.065v-2zm-2.065 0c-1.971 0-3.68-.49-5.161-1.45l-1.088 1.678c1.833 1.188 3.927 1.771 6.249 1.771v-2zM7.352 69.7c-1.492-.987-2.659-2.357-3.497-4.141l-1.81.85c.982 2.09 2.382 3.753 4.203 4.959L7.352 69.7zm-3.495-4.137c-.839-1.807-1.272-3.91-1.272-6.334h-2c0 2.663.477 5.063 1.458 7.176l1.814-.842zm-1.272-6.334c0-2.424.433-4.514 1.27-6.295l-1.81-.85c-.983 2.092-1.46 4.482-1.46 7.145h2zm1.27-6.295c.837-1.78 1.999-3.121 3.48-4.06l-1.07-1.69c-1.832 1.162-3.237 2.807-4.22 4.9l1.81.85zm3.494-4.07c1.453-.954 3.159-1.445 5.156-1.445v-2c-2.343 0-4.44.582-6.254 1.774l1.098 1.672zm5.156-1.445h2.065v-2h-2.065v2zm2.065 0c1.997 0 3.718.491 5.196 1.45l1.088-1.68c-1.835-1.188-3.94-1.77-6.284-1.77v2zm5.2 1.451c1.459.938 2.611 2.28 3.45 4.064l1.81-.85c-.981-2.089-2.372-3.734-4.18-4.896l-1.08 1.682zm3.446 4.055c.816 1.784 1.239 3.877 1.239 6.304h2c0-2.66-.464-5.046-1.42-7.136l-1.82.832zM20.68 59.23c0-2.313-.43-4.23-1.452-5.589-1.063-1.411-2.642-2.06-4.553-2.06v2c1.426 0 2.349.458 2.955 1.263.646.859 1.05 2.266 1.05 4.386h2zm-6.005-7.65h-2.24v2h2.24v-2zm-2.24 0c-1.915 0-3.495.678-4.578 2.112l1.596 1.206c.643-.852 1.583-1.318 2.982-1.318v-2zm-4.578 2.112c-1.046 1.386-1.497 3.292-1.497 5.573h2c0-2.059.413-3.467 1.093-4.367L7.857 53.69zM6.36 59.264c0 2.288.465 4.204 1.534 5.61l1.592-1.21c-.704-.927-1.126-2.348-1.126-4.4h-2zm1.532 5.608c1.08 1.43 2.646 2.112 4.543 2.112v-2c-1.37 0-2.3-.462-2.947-1.317l-1.596 1.205zm4.543 2.112h2.24v-2h-2.24v2zm2.24 0c1.914 0 3.49-.678 4.55-2.123l-1.61-1.184c-.62.842-1.54 1.307-2.94 1.307v2zm4.55-2.123c1.02-1.387 1.455-3.314 1.455-5.632h-2c0 2.115-.405 3.549-1.066 4.448l1.612 1.184zm4.865-27.485l.905.425.002-.004-.907-.421zm-3.815 4.55l.544.839.007-.005.006-.004-.557-.83zm-13.475 0l-.552.834.008.005.544-.84zm-3.85-4.55l-.907.42.002.005.905-.425zm0-13.475l-.905-.426.905.426zm3.85-4.48l.535.844.007-.004.007-.005-.549-.835zm13.51 0l-.544.839.003.002.541-.841zm3.815 4.48l.91-.417-.005-.009-.905.426zm-15.47 1.785l.798.602-.798-.602zm.035 9.975l.798-.603-.002-.002-.796.605zm9.73 0l.806.592-.806-.592zm6.035-5.04c0 2.423-.433 4.527-1.272 6.334l1.814.842c.981-2.113 1.458-4.513 1.458-7.176h-2zm-1.27 6.33c-.84 1.787-1.998 3.158-3.467 4.145l1.114 1.66c1.797-1.206 3.183-2.87 4.163-4.955l-1.81-.85zm-3.454 4.135c-1.48.96-3.19 1.45-5.161 1.45v2c2.322 0 4.416-.584 6.249-1.771l-1.088-1.679zm-5.161 1.45h-2.065v2h2.065v-2zm-2.065 0c-1.971 0-3.68-.49-5.161-1.45l-1.088 1.679c1.833 1.187 3.927 1.77 6.249 1.77v-2zm-5.153-1.444c-1.492-.988-2.659-2.358-3.497-4.142l-1.81.851c.982 2.09 2.382 3.753 4.203 4.959l1.104-1.668zm-3.495-4.137c-.839-1.807-1.272-3.91-1.272-6.334h-2c0 2.663.477 5.063 1.458 7.176l1.814-.842zM2.585 30.62c0-2.424.433-4.514 1.27-6.295l-1.81-.85c-.983 2.092-1.46 4.482-1.46 7.145h2zm1.27-6.295c.837-1.78 1.999-3.122 3.48-4.06l-1.07-1.69c-1.832 1.161-3.237 2.807-4.22 4.9l1.81.85zm3.494-4.07c1.453-.954 3.159-1.445 5.156-1.445v-2c-2.343 0-4.44.582-6.254 1.774l1.098 1.671zm5.156-1.445h2.065v-2h-2.065v2zm2.065 0c1.997 0 3.718.49 5.196 1.449l1.088-1.679c-1.835-1.188-3.94-1.77-6.284-1.77v2zm5.2 1.45c1.459.939 2.611 2.28 3.45 4.065l1.81-.85c-.981-2.09-2.372-3.735-4.18-4.896l-1.08 1.682zm3.446 4.056c.816 1.783 1.239 3.877 1.239 6.304h2c0-2.66-.464-5.046-1.42-7.137l-1.82.833zM20.68 30.62c0-2.314-.43-4.231-1.452-5.59-1.063-1.41-2.642-2.06-4.553-2.06v2c1.426 0 2.349.458 2.955 1.264.646.858 1.05 2.266 1.05 4.386h2zm-6.005-7.65h-2.24v2h2.24v-2zm-2.24 0c-1.915 0-3.495.677-4.578 2.112l1.596 1.205c.643-.851 1.583-1.317 2.982-1.317v-2zm-4.578 2.112C6.811 26.47 6.36 28.374 6.36 30.656h2c0-2.059.413-3.467 1.093-4.368l-1.596-1.205zM6.36 30.656c0 2.288.465 4.203 1.534 5.61l1.592-1.21c-.704-.927-1.126-2.348-1.126-4.4h-2zm1.532 5.607c1.08 1.431 2.646 2.113 4.543 2.113v-2c-1.37 0-2.3-.462-2.947-1.318l-1.596 1.205zm4.543 2.113h2.24v-2h-2.24v2zm2.24 0c1.914 0 3.49-.678 4.55-2.123l-1.61-1.184c-.62.841-1.54 1.307-2.94 1.307v2zm4.55-2.123c1.02-1.388 1.455-3.314 1.455-5.632h-2c0 2.115-.405 3.548-1.066 4.448l1.612 1.184zM25 1.837h1v-1h-1v1zm0 6.195v1h1v-1h-1zm-15.54 0v-1H8.017l.507 1.351.936-.35zm.525 6.615v1h1v-1h-1zm-5.775 0h-1v1h1v-1zm-.49-5.845l.844-.537-.009-.013-.009-.013-.826.563zm-1.68-.77h-1v1h1v-1zm0-6.195v-1h-1v1h1zm21.96 0v6.195h2V1.837h-2zm1 5.195H9.46v2H25v-2zM8.524 8.383c.301.804.461 1.733.461 2.8h2c0-1.267-.19-2.439-.589-3.502l-1.872.702zm.461 2.8v3.464h2v-3.465h-2zm1 2.464H4.21v2h5.775v-2zm-4.775 1v-3.36h-2v3.36h2zm0-3.36c0-1.192-.162-2.26-.646-3.022L2.876 9.34c.169.265.334.853.334 1.948h2zM4.546 8.24c-.581-.853-1.495-1.207-2.506-1.207v2c.529 0 .735.16.854.334L4.546 8.24zM3.04 8.032V1.837h-2v6.195h2zm-1-5.195H25v-2H2.04v2z" fill="#313131"/></svg>
